X: 20331
T: My Love alass is Dead and Gone
%R: air, waltz
B: James Oswald "The Caledonian Pocket Companion" v.2 p.33 #1 (with top 6 staves continued from p.32)
Z: 2019 John Chambers <jc:trillian.mit.edu>
M: 3/4
L: 1/8
K: D
|: "_Slow"\
d2 (f/e/)d ef | A3 F A2 | d2 (e/f/)g f2 | (Ted)(ef) e2 |\
d2 (f/e/)d ef | A3 F A2 | a<f (ed)(ef) | d6 :|
|:\
c2 (e/c/)A d>e | f3 e (d/e/)f | e2 f2 T^g2 | (ae) (AB) c2 |\
f2 (f/e/)d a2 | e2 (e/d/)c a2 | f2 (Ted)(TcB) | A3 B A2 |
d2 (f/e/)d ef | A3 F A2 | d2 (e/f/)g f2 | (Ted)(ef) e2 |\
d2 (f/e/)d ef | A3 F A2 | (a<f) (Ted)(ef) | d6 :|

%%sep 1 1 500
%%sep 1 1 500
%%text Vol VII Finis
%%center Page 34 is blank
%%text Vol VIII


